report_00007_2020-12-11T15:55:29.892Z/network-server-latency/comparison/line/6_vs_7.svg

<svg width="640" height="500" xmlns="http://www.w3.org/2000/svg" xmlns:xlink="http://www.w3.org/1999/xlink"><path fill="#fff" d="M0 0h640v500H0z"/><defs><path id="d" stroke-width=".222" stroke="currentColor" d="M-1-1h2v2h-2z"/><path id="b" stroke-width=".222" stroke="currentColor" d="M0-1.33l-1.33 2h2.66z"/><path id="f" stroke-width=".222" stroke="currentColor" d="M0 1.33L1.265.411.782-1.067l-1.564-.009-.483 1.487z"/><use xlink:href="#b" id="c" stroke="currentColor" transform="rotate(180)"/><use xlink:href="#d" id="e" stroke="currentColor" transform="rotate(45)"/><circle id="a" stroke-width=".222" stroke="currentColor" cx="0" cy="0" r="1"/></defs><g fill="none" color="#000" stroke="currentColor"><path stroke="#000" d="M37.3 426.3h9m568.7 0h-9"/><text transform="translate(29 430.2)" stroke="none" fill="#000" font-family="Arial" font-size="12" text-anchor="end"><tspan>3</tspan></text></g><g fill="none" color="#000" stroke="currentColor"><path stroke="#000" d="M37.3 347.6h9m568.7 0h-9"/><text transform="translate(29 351.5)" stroke="none" fill="#000" font-family="Arial" font-size="12" text-anchor="end"><tspan>4</tspan></text></g><g fill="none" color="#000" stroke="currentColor"><path stroke="#000" d="M37.3 269h9m568.7 0h-9"/><text transform="translate(29 272.9)" stroke="none" fill="#000" font-family="Arial" font-size="12" text-anchor="end"><tspan>5</tspan></text></g><g fill="none" color="#000" stroke="currentColor"><path stroke="#000" d="M37.3 190.3h9m568.7 0h-9"/><text transform="translate(29 194.2)" stroke="none" fill="#000" font-family="Arial" font-size="12" text-anchor="end"><tspan>6</tspan></text></g><g fill="none" color="#000" stroke="currentColor"><path stroke="#000" d="M37.3 111.6h9m568.7 0h-9"/><text transform="translate(29 115.5)" stroke="none" fill="#000" font-family="Arial" font-size="12" text-anchor="end"><tspan>7</tspan></text></g><g fill="none" color="#000" stroke="currentColor"><path stroke="#000" d="M37.3 32.9h9m568.7 0h-9"/><text transform="translate(29 36.8)" stroke="none" fill="#000" font-family="Arial" font-size="12" text-anchor="end"><tspan>8</tspan></text></g><g fill="none" color="#000" stroke="currentColor"><path stroke="#000" d="M37.3 428v-9m0-400.9v9"/><text transform="translate(37.3 449.9)" stroke="none" fill="#000" font-family="Arial" font-size="12" text-anchor="middle"><tspan>0</tspan></text></g><g fill="none" color="#000" stroke="currentColor"><path stroke="#000" d="M95.7 428v-9m0-400.9v9"/><text transform="translate(95.7 449.9)" stroke="none" fill="#000" font-family="Arial" font-size="12" text-anchor="middle"><tspan>10</tspan></text></g><g fill="none" color="#000" stroke="currentColor"><path stroke="#000" d="M154 428v-9m0-400.9v9"/><text transform="translate(154 449.9)" stroke="none" fill="#000" font-family="Arial" font-size="12" text-anchor="middle"><tspan>20</tspan></text></g><g fill="none" color="#000" stroke="currentColor"><path stroke="#000" d="M212.4 428v-9m0-400.9v9"/><text transform="translate(212.4 449.9)" stroke="none" fill="#000" font-family="Arial" font-size="12" text-anchor="middle"><tspan>30</tspan></text></g><g fill="none" color="#000" stroke="currentColor"><path stroke="#000" d="M270.7 428v-9m0-400.9v9"/><text transform="translate(270.7 449.9)" stroke="none" fill="#000" font-family="Arial" font-size="12" text-anchor="middle"><tspan>40</tspan></text></g><g fill="none" color="#000" stroke="currentColor"><path stroke="#000" d="M329.1 428v-9m0-400.9v9"/><text transform="translate(329.1 449.9)" stroke="none" fill="#000" font-family="Arial" font-size="12" text-anchor="middle"><tspan>50</tspan></text></g><g fill="none" color="#000" stroke="currentColor"><path stroke="#000" d="M387.4 428v-9m0-400.9v9"/><text transform="translate(387.4 449.9)" stroke="none" fill="#000" font-family="Arial" font-size="12" text-anchor="middle"><tspan>60</tspan></text></g><g fill="none" color="#000" stroke="currentColor"><path stroke="#000" d="M445.8 428v-9m0-400.9v9"/><text transform="translate(445.8 449.9)" stroke="none" fill="#000" font-family="Arial" font-size="12" text-anchor="middle"><tspan>70</tspan></text></g><g fill="none" color="#000" stroke="currentColor"><path stroke="#000" d="M504.1 428v-9m0-400.9v9"/><text transform="translate(504.1 449.9)" stroke="none" fill="#000" font-family="Arial" font-size="12" text-anchor="middle"><tspan>80</tspan></text></g><g fill="none" color="#000" stroke="currentColor"><path stroke="#000" d="M562.5 428v-9m0-400.9v9"/><text transform="translate(562.5 449.9)" stroke="none" fill="#000" font-family="Arial" font-size="12" text-anchor="middle"><tspan>90</tspan></text></g><path stroke="#000" d="M37.3 18.1V428H615V18.1H37.3z" fill="none" color="#000"/><text transform="translate(425.4 467.9)" stroke="none" fill="#000" font-family="Arial" font-size="12" text-anchor="end" color="#000"><tspan>pages+cached+noexternal+nofonts</tspan></text><path stroke="#9400D3" d="M433.7 464h42.2M37.3 259.2l5.8 58.4 5.9 6.7 5.8-2.9 5.8 13.5 5.9-.5 5.8 15.7 5.8 26.1 5.9-20.8 5.8-24.6 5.9 11.6 5.8 5.4 5.8 6 5.9 4.2 5.8-21.2 5.8 7.1 5.9-45 5.8 36.9 5.8 6.8 5.9 41.6 5.8-47.1 5.8-61.1 5.9-12.7 5.8 125 5.8-38.2 5.9 13.7 5.8 6.7 5.9-20.2 5.8-9.7 5.8-34.2 5.9 13 5.8 48.5 5.8 18 5.9-86.9 5.8 73.6 5.8-15.5 5.9-1.5 5.8-6.1 5.8-47.4 5.9 15.7 5.8 25.3 5.8-28.5 5.9 105.5 5.8-80.8 5.9-12.3 5.8-4.5 5.8 21.6 5.9-65.4 5.8 47.6 5.8 31.2 5.9-26.1 5.8 27.6 5.8-20.7 5.9-22.1 5.8-3 5.8 11.8 5.9-23 5.8 71.6 5.9-56.8 5.8 24.1 5.8 25.8 5.9-23.4 5.8-29.7 5.8 40.9 5.9-43.7 5.8 52.5 5.8-23.1 5.9-29.6 5.8 12.2 5.8-27.1 5.9 59 5.8-9.5 5.8-6 5.9 47.3 5.8-42.4 5.9-24.5 5.8 16 5.8 38.3 5.9-25.3 5.8-57.7 5.8 19.4L510 338l5.8 36.9 5.8-89.4 5.9 12.9 5.8 19.2 5.8 26.9 5.9 5.1 5.8-19.8 5.8 39.9 5.9-34.1 5.8-11.4 5.9-7.6 5.8-1.7 5.8 32.4 5.9-14.9 5.8 22 5.8 15 5.9-54.4 5.8 5.5" fill="none" color="#000"/><text transform="translate(425.4 485.9)" stroke="none" fill="#000" font-family="Arial" font-size="12" text-anchor="end" color="#000"><tspan>pages+cached+noexternal+nosvg</tspan></text><path stroke="#009E73" d="M433.7 482h42.2M37.3 168.4l5.8 54.5 5.9 6.9 5.8-53 5.8 63.2 5.9-41.8 5.8 40.5 5.8-20.6 5.9 5.3 5.8-23 5.9-10.4 5.8 111.5 5.8-126.5 5.9 94 5.8-22.3 5.8-25.9 5.9-152.6 5.8 133.9 5.8-114 5.9 95 5.8 89.8 5.8-47 5.9 40.4 5.8-13.2 5.8-41.8L183.2 91l5.8 122.3 5.9 72.5 5.8-139.4 5.8 23 5.9-27.4 5.8 48.9 5.8-73.2 5.9 232.9 5.8-92.1L241.5 26l5.9 260.3 5.8-79.5 5.8-62.4 5.9 63.7 5.8 37.2 5.8-40.9 5.9-47.6 5.8 38.5 5.9 39.2 5.8-52.5 5.8-11.7 5.9-14 5.8-29.4 5.8 64 5.9 33.1 5.8-24.2 5.8 31 5.9-21 5.8-28.4 5.8 39.7 5.9-161.4 5.8 153.5 5.9-108.1 5.8 115.7 5.8-67 5.9 41.9 5.8-6.2 5.8-130.4 5.9 189.3 5.8 6.9 5.8-98.6 5.9 48.9 5.8-50.3 5.8-3.4 5.9-55.9 5.8 83.1 5.8-71.6 5.9 82.6 5.8 97.3 5.9-60 5.8-50.4 5.8-8.9 5.9 71.2 5.8-21.2 5.8-51.4 5.9 72.7 5.8-82.8 5.8 33.2 5.9-41.6 5.8-48.9 5.8 98.4 5.9 6.8 5.8 63.4 5.8-55.5 5.9-89.4 5.8 105.1 5.9 55 5.8-148.6 5.8 39 5.9 24.4 5.8-11.9 5.8 40.3 5.9 39.6 5.8-38.1" fill="none" color="#000"/><g fill="none" color="#000" stroke="currentColor"><path stroke="#000" d="M37.3 18.1V428H615V18.1H37.3z"/></g></svg>

<?xml version="1.0" encoding="utf-8"  standalone="no"?>
<svg 
 width="640" height="500"
 viewBox="0 0 640 500"
 xmlns="http://www.w3.org/2000/svg"
 xmlns:xlink="http://www.w3.org/1999/xlink"
>

<title>Gnuplot</title>
<desc>Produced by GNUPLOT 5.4 patchlevel 0 </desc>

<g id="gnuplot_canvas">

<rect x="0" y="0" width="640" height="500" fill="#ffffff"/>
<defs>

	<circle id='gpDot' r='0.5' stroke-width='0.5' stroke='currentColor'/>
	<path id='gpPt0' stroke-width='0.222' stroke='currentColor' d='M-1,0 h2 M0,-1 v2'/>
	<path id='gpPt1' stroke-width='0.222' stroke='currentColor' d='M-1,-1 L1,1 M1,-1 L-1,1'/>
	<path id='gpPt2' stroke-width='0.222' stroke='currentColor' d='M-1,0 L1,0 M0,-1 L0,1 M-1,-1 L1,1 M-1,1 L1,-1'/>
	<rect id='gpPt3' stroke-width='0.222' stroke='currentColor' x='-1' y='-1' width='2' height='2'/>
	<rect id='gpPt4' stroke-width='0.222' stroke='currentColor' fill='currentColor' x='-1' y='-1' width='2' height='2'/>
	<circle id='gpPt5' stroke-width='0.222' stroke='currentColor' cx='0' cy='0' r='1'/>
	<use xlink:href='#gpPt5' id='gpPt6' fill='currentColor' stroke='none'/>
	<path id='gpPt7' stroke-width='0.222' stroke='currentColor' d='M0,-1.33 L-1.33,0.67 L1.33,0.67 z'/>
	<use xlink:href='#gpPt7' id='gpPt8' fill='currentColor' stroke='none'/>
	<use xlink:href='#gpPt7' id='gpPt9' stroke='currentColor' transform='rotate(180)'/>
	<use xlink:href='#gpPt9' id='gpPt10' fill='currentColor' stroke='none'/>
	<use xlink:href='#gpPt3' id='gpPt11' stroke='currentColor' transform='rotate(45)'/>
	<use xlink:href='#gpPt11' id='gpPt12' fill='currentColor' stroke='none'/>
	<path id='gpPt13' stroke-width='0.222' stroke='currentColor' d='M0,1.330 L1.265,0.411 L0.782,-1.067 L-0.782,-1.076 L-1.265,0.411 z'/>
	<use xlink:href='#gpPt13' id='gpPt14' fill='currentColor' stroke='none'/>
	<filter id='textbox' filterUnits='objectBoundingBox' x='0' y='0' height='1' width='1'>
	  <feFlood flood-color='#FFFFFF' flood-opacity='1' result='bgnd'/>
	  <feComposite in='SourceGraphic' in2='bgnd' operator='atop'/>
	</filter>
	<filter id='greybox' filterUnits='objectBoundingBox' x='0' y='0' height='1' width='1'>
	  <feFlood flood-color='lightgrey' flood-opacity='1' result='grey'/>
	  <feComposite in='SourceGraphic' in2='grey' operator='atop'/>
	</filter>
</defs>
<g fill="none" color="#FFFFFF" stroke="black" stroke-width="1.00" stroke-linecap="butt" stroke-linejoin="miter">
</g>
<g fill="none" color="black" stroke="currentColor" stroke-width="1.00" stroke-linecap="butt" stroke-linejoin="miter">
	<path stroke='black'  d='M37.3,426.3 L46.3,426.3 M615.0,426.3 L606.0,426.3  '/>	<g transform="translate(29.0,430.2)" stroke="none" fill="black" font-family="Arial" font-size="12.00"  text-anchor="end">
		<text><tspan font-family="Arial" > 3</tspan></text>
	</g>
</g>
<g fill="none" color="black" stroke="currentColor" stroke-width="1.00" stroke-linecap="butt" stroke-linejoin="miter">
	<path stroke='black'  d='M37.3,347.6 L46.3,347.6 M615.0,347.6 L606.0,347.6  '/>	<g transform="translate(29.0,351.5)" stroke="none" fill="black" font-family="Arial" font-size="12.00"  text-anchor="end">
		<text><tspan font-family="Arial" > 4</tspan></text>
	</g>
</g>
<g fill="none" color="black" stroke="currentColor" stroke-width="1.00" stroke-linecap="butt" stroke-linejoin="miter">
	<path stroke='black'  d='M37.3,269.0 L46.3,269.0 M615.0,269.0 L606.0,269.0  '/>	<g transform="translate(29.0,272.9)" stroke="none" fill="black" font-family="Arial" font-size="12.00"  text-anchor="end">
		<text><tspan font-family="Arial" > 5</tspan></text>
	</g>
</g>
<g fill="none" color="black" stroke="currentColor" stroke-width="1.00" stroke-linecap="butt" stroke-linejoin="miter">
	<path stroke='black'  d='M37.3,190.3 L46.3,190.3 M615.0,190.3 L606.0,190.3  '/>	<g transform="translate(29.0,194.2)" stroke="none" fill="black" font-family="Arial" font-size="12.00"  text-anchor="end">
		<text><tspan font-family="Arial" > 6</tspan></text>
	</g>
</g>
<g fill="none" color="black" stroke="currentColor" stroke-width="1.00" stroke-linecap="butt" stroke-linejoin="miter">
	<path stroke='black'  d='M37.3,111.6 L46.3,111.6 M615.0,111.6 L606.0,111.6  '/>	<g transform="translate(29.0,115.5)" stroke="none" fill="black" font-family="Arial" font-size="12.00"  text-anchor="end">
		<text><tspan font-family="Arial" > 7</tspan></text>
	</g>
</g>
<g fill="none" color="black" stroke="currentColor" stroke-width="1.00" stroke-linecap="butt" stroke-linejoin="miter">
	<path stroke='black'  d='M37.3,32.9 L46.3,32.9 M615.0,32.9 L606.0,32.9  '/>	<g transform="translate(29.0,36.8)" stroke="none" fill="black" font-family="Arial" font-size="12.00"  text-anchor="end">
		<text><tspan font-family="Arial" > 8</tspan></text>
	</g>
</g>
<g fill="none" color="black" stroke="currentColor" stroke-width="1.00" stroke-linecap="butt" stroke-linejoin="miter">
	<path stroke='black'  d='M37.3,428.0 L37.3,419.0 M37.3,18.1 L37.3,27.1  '/>	<g transform="translate(37.3,449.9)" stroke="none" fill="black" font-family="Arial" font-size="12.00"  text-anchor="middle">
		<text><tspan font-family="Arial" > 0</tspan></text>
	</g>
</g>
<g fill="none" color="black" stroke="currentColor" stroke-width="1.00" stroke-linecap="butt" stroke-linejoin="miter">
	<path stroke='black'  d='M95.7,428.0 L95.7,419.0 M95.7,18.1 L95.7,27.1  '/>	<g transform="translate(95.7,449.9)" stroke="none" fill="black" font-family="Arial" font-size="12.00"  text-anchor="middle">
		<text><tspan font-family="Arial" > 10</tspan></text>
	</g>
</g>
<g fill="none" color="black" stroke="currentColor" stroke-width="1.00" stroke-linecap="butt" stroke-linejoin="miter">
	<path stroke='black'  d='M154.0,428.0 L154.0,419.0 M154.0,18.1 L154.0,27.1  '/>	<g transform="translate(154.0,449.9)" stroke="none" fill="black" font-family="Arial" font-size="12.00"  text-anchor="middle">
		<text><tspan font-family="Arial" > 20</tspan></text>
	</g>
</g>
<g fill="none" color="black" stroke="currentColor" stroke-width="1.00" stroke-linecap="butt" stroke-linejoin="miter">
	<path stroke='black'  d='M212.4,428.0 L212.4,419.0 M212.4,18.1 L212.4,27.1  '/>	<g transform="translate(212.4,449.9)" stroke="none" fill="black" font-family="Arial" font-size="12.00"  text-anchor="middle">
		<text><tspan font-family="Arial" > 30</tspan></text>
	</g>
</g>
<g fill="none" color="black" stroke="currentColor" stroke-width="1.00" stroke-linecap="butt" stroke-linejoin="miter">
	<path stroke='black'  d='M270.7,428.0 L270.7,419.0 M270.7,18.1 L270.7,27.1  '/>	<g transform="translate(270.7,449.9)" stroke="none" fill="black" font-family="Arial" font-size="12.00"  text-anchor="middle">
		<text><tspan font-family="Arial" > 40</tspan></text>
	</g>
</g>
<g fill="none" color="black" stroke="currentColor" stroke-width="1.00" stroke-linecap="butt" stroke-linejoin="miter">
	<path stroke='black'  d='M329.1,428.0 L329.1,419.0 M329.1,18.1 L329.1,27.1  '/>	<g transform="translate(329.1,449.9)" stroke="none" fill="black" font-family="Arial" font-size="12.00"  text-anchor="middle">
		<text><tspan font-family="Arial" > 50</tspan></text>
	</g>
</g>
<g fill="none" color="black" stroke="currentColor" stroke-width="1.00" stroke-linecap="butt" stroke-linejoin="miter">
	<path stroke='black'  d='M387.4,428.0 L387.4,419.0 M387.4,18.1 L387.4,27.1  '/>	<g transform="translate(387.4,449.9)" stroke="none" fill="black" font-family="Arial" font-size="12.00"  text-anchor="middle">
		<text><tspan font-family="Arial" > 60</tspan></text>
	</g>
</g>
<g fill="none" color="black" stroke="currentColor" stroke-width="1.00" stroke-linecap="butt" stroke-linejoin="miter">
	<path stroke='black'  d='M445.8,428.0 L445.8,419.0 M445.8,18.1 L445.8,27.1  '/>	<g transform="translate(445.8,449.9)" stroke="none" fill="black" font-family="Arial" font-size="12.00"  text-anchor="middle">
		<text><tspan font-family="Arial" > 70</tspan></text>
	</g>
</g>
<g fill="none" color="black" stroke="currentColor" stroke-width="1.00" stroke-linecap="butt" stroke-linejoin="miter">
	<path stroke='black'  d='M504.1,428.0 L504.1,419.0 M504.1,18.1 L504.1,27.1  '/>	<g transform="translate(504.1,449.9)" stroke="none" fill="black" font-family="Arial" font-size="12.00"  text-anchor="middle">
		<text><tspan font-family="Arial" > 80</tspan></text>
	</g>
</g>
<g fill="none" color="black" stroke="currentColor" stroke-width="1.00" stroke-linecap="butt" stroke-linejoin="miter">
	<path stroke='black'  d='M562.5,428.0 L562.5,419.0 M562.5,18.1 L562.5,27.1  '/>	<g transform="translate(562.5,449.9)" stroke="none" fill="black" font-family="Arial" font-size="12.00"  text-anchor="middle">
		<text><tspan font-family="Arial" > 90</tspan></text>
	</g>
</g>
<g fill="none" color="black" stroke="currentColor" stroke-width="1.00" stroke-linecap="butt" stroke-linejoin="miter">
</g>
<g fill="none" color="black" stroke="currentColor" stroke-width="1.00" stroke-linecap="butt" stroke-linejoin="miter">
	<path stroke='black'  d='M37.3,18.1 L37.3,428.0 L615.0,428.0 L615.0,18.1 L37.3,18.1 Z  '/></g>
<g fill="none" color="black" stroke="currentColor" stroke-width="1.00" stroke-linecap="butt" stroke-linejoin="miter">
</g>
	<g id="gnuplot_plot_1" ><title>pages+cached+noexternal+nofonts</title>
<g fill="none" color="black" stroke="currentColor" stroke-width="1.00" stroke-linecap="butt" stroke-linejoin="miter">
	<g transform="translate(425.4,467.9)" stroke="none" fill="black" font-family="Arial" font-size="12.00"  text-anchor="end">
		<text><tspan font-family="Arial" >pages+cached+noexternal+nofonts</tspan></text>
	</g>
</g>
<g fill="none" color="black" stroke="currentColor" stroke-width="1.00" stroke-linecap="butt" stroke-linejoin="miter">
	<path stroke='rgb(148,   0, 211)'  d='M433.7,464.0 L475.9,464.0 M37.3,259.2 L43.1,317.6 L49.0,324.3 L54.8,321.4 L60.6,334.9 L66.5,334.4
		L72.3,350.1 L78.1,376.2 L84.0,355.4 L89.8,330.8 L95.7,342.4 L101.5,347.8 L107.3,353.8 L113.2,358.0
		L119.0,336.8 L124.8,343.9 L130.7,298.9 L136.5,335.8 L142.3,342.6 L148.2,384.2 L154.0,337.1 L159.8,276.0
		L165.7,263.3 L171.5,388.3 L177.3,350.1 L183.2,363.8 L189.0,370.5 L194.9,350.3 L200.7,340.6 L206.5,306.4
		L212.4,319.4 L218.2,367.9 L224.0,385.9 L229.9,299.0 L235.7,372.6 L241.5,357.1 L247.4,355.6 L253.2,349.5
		L259.0,302.1 L264.9,317.8 L270.7,343.1 L276.5,314.6 L282.4,420.1 L288.2,339.3 L294.1,327.0 L299.9,322.5
		L305.7,344.1 L311.6,278.7 L317.4,326.3 L323.2,357.5 L329.1,331.4 L334.9,359.0 L340.7,338.3 L346.6,316.2
		L352.4,313.2 L358.2,325.0 L364.1,302.0 L369.9,373.6 L375.8,316.8 L381.6,340.9 L387.4,366.7 L393.3,343.3
		L399.1,313.6 L404.9,354.5 L410.8,310.8 L416.6,363.3 L422.4,340.2 L428.3,310.6 L434.1,322.8 L439.9,295.7
		L445.8,354.7 L451.6,345.2 L457.4,339.2 L463.3,386.5 L469.1,344.1 L475.0,319.6 L480.8,335.6 L486.6,373.9
		L492.5,348.6 L498.3,290.9 L504.1,310.3 L510.0,338.0 L515.8,374.9 L521.6,285.5 L527.5,298.4 L533.3,317.6
		L539.1,344.5 L545.0,349.6 L550.8,329.8 L556.6,369.7 L562.5,335.6 L568.3,324.2 L574.2,316.6 L580.0,314.9
		L585.8,347.3 L591.7,332.4 L597.5,354.4 L603.3,369.4 L609.2,315.0 L615.0,320.5  '/></g>
	</g>
	<g id="gnuplot_plot_2" ><title>pages+cached+noexternal+nosvg</title>
<g fill="none" color="black" stroke="currentColor" stroke-width="1.00" stroke-linecap="butt" stroke-linejoin="miter">
	<g transform="translate(425.4,485.9)" stroke="none" fill="black" font-family="Arial" font-size="12.00"  text-anchor="end">
		<text><tspan font-family="Arial" >pages+cached+noexternal+nosvg</tspan></text>
	</g>
</g>
<g fill="none" color="black" stroke="currentColor" stroke-width="1.00" stroke-linecap="butt" stroke-linejoin="miter">
	<path stroke='rgb(  0, 158, 115)'  d='M433.7,482.0 L475.9,482.0 M37.3,168.4 L43.1,222.9 L49.0,229.8 L54.8,176.8 L60.6,240.0 L66.5,198.2
		L72.3,238.7 L78.1,218.1 L84.0,223.4 L89.8,200.4 L95.7,190.0 L101.5,301.5 L107.3,175.0 L113.2,269.0
		L119.0,246.7 L124.8,220.8 L130.7,68.2 L136.5,202.1 L142.3,88.1 L148.2,183.1 L154.0,272.9 L159.8,225.9
		L165.7,266.3 L171.5,253.1 L177.3,211.3 L183.2,91.0 L189.0,213.3 L194.9,285.8 L200.7,146.4 L206.5,169.4
		L212.4,142.0 L218.2,190.9 L224.0,117.7 L229.9,350.6 L235.7,258.5 L241.5,26.0 L247.4,286.3 L253.2,206.8
		L259.0,144.4 L264.9,208.1 L270.7,245.3 L276.5,204.4 L282.4,156.8 L288.2,195.3 L294.1,234.5 L299.9,182.0
		L305.7,170.3 L311.6,156.3 L317.4,126.9 L323.2,190.9 L329.1,224.0 L334.9,199.8 L340.7,230.8 L346.6,209.8
		L352.4,181.4 L358.2,221.1 L364.1,59.7 L369.9,213.2 L375.8,105.1 L381.6,220.8 L387.4,153.8 L393.3,195.7
		L399.1,189.5 L404.9,59.1 L410.8,248.4 L416.6,255.3 L422.4,156.7 L428.3,205.6 L434.1,155.3 L439.9,151.9
		L445.8,96.0 L451.6,179.1 L457.4,107.5 L463.3,190.1 L469.1,287.4 L475.0,227.4 L480.8,177.0 L486.6,168.1
		L492.5,239.3 L498.3,218.1 L504.1,166.7 L510.0,239.4 L515.8,156.6 L521.6,189.8 L527.5,148.2 L533.3,99.3
		L539.1,197.7 L545.0,204.5 L550.8,267.9 L556.6,212.4 L562.5,123.0 L568.3,228.1 L574.2,283.1 L580.0,134.5
		L585.8,173.5 L591.7,197.9 L597.5,186.0 L603.3,226.3 L609.2,265.9 L615.0,227.8  '/></g>
	</g>
<g fill="none" color="#FFFFFF" stroke="rgb(  0, 158, 115)" stroke-width="2.00" stroke-linecap="butt" stroke-linejoin="miter">
</g>
<g fill="none" color="black" stroke="currentColor" stroke-width="2.00" stroke-linecap="butt" stroke-linejoin="miter">
</g>
<g fill="none" color="black" stroke="black" stroke-width="1.00" stroke-linecap="butt" stroke-linejoin="miter">
</g>
<g fill="none" color="black" stroke="currentColor" stroke-width="1.00" stroke-linecap="butt" stroke-linejoin="miter">
	<path stroke='black'  d='M37.3,18.1 L37.3,428.0 L615.0,428.0 L615.0,18.1 L37.3,18.1 Z  '/></g>
<g fill="none" color="black" stroke="currentColor" stroke-width="1.00" stroke-linecap="butt" stroke-linejoin="miter">
</g>
</g>
</svg>
